mapper/static/parking.svg

<?xml version="1.0" encoding="UTF-8"?>
<svg version="1.1" viewBox="0 0 36 36" xmlns="http://www.w3.org/2000/svg">
 <rect width="36" height="36" fill="#269" style="paint-order:markers stroke fill"/>
 <path d="m30 28c0 1.104-.896 2-2 2h-20c-1.104 0-2-.896-2-2v-20c0-1.104.896-2 2-2h20c1.104 0 2 .896 2 2z" fill="#003258"/>
 <path d="m11 9.496c0-1.504.896-2.496 2.496-2.496h5.665c4.703 0 8.191 2.944 8.191 7.52 0 4.67-3.617 7.48-8 7.48h-3.352v5.479c0 1.6-1.024 2.496-2.4 2.496s-2.6-.897-2.6-2.496zm5 8.504h3.062c2.018 0 3.297-1.465 3.297-3.385s-1.279-3.392-3.297-3.392h-3.062z" fill="#fff"/>
</svg>

<?xml version="1.0" encoding="UTF-8" standalone="no"?>
<svg xmlns="http://www.w3.org/2000/svg"
     viewBox="0 0 36 36"
     version="1.1">
    <rect style="opacity:1;fill:#226699;fill-opacity:1;fill-rule:nonzero;stroke:none;stroke-width:3.34944224;stroke-linecap:round;stroke-linejoin:round;stroke-miterlimit:4;stroke-dasharray:none;stroke-opacity:1;paint-order:markers stroke fill"
          width="36"
          height="36"
          x="0"
          y="0"/>
    <path style="fill:#003258;fill-opacity:1"
          d="m 30,28 c 0,1.104 -0.896,2 -2,2 H 8 C 6.896,30 6,29.104 6,28 V 8 C 6,6.896 6.896,6 8,6 h 20 c 1.104,0 2,0.896 2,2 z"/>
    <path style="fill:#ffffff"
          d="M 11,9.496 C 11,7.992 11.896,7 13.496,7 h 5.665 c 4.703,0 8.191,2.944 8.191,7.52 0,4.67 -3.617,7.48 -8,7.48 H 16 v 5.479 c 0,1.6 -1.024,2.496 -2.4,2.496 -1.376,0 -2.6,-0.897 -2.6,-2.496 z M 16,18 h 3.062 c 2.018,0 3.297,-1.465 3.297,-3.385 0,-1.92 -1.279,-3.392 -3.297,-3.392 H 16 Z"/>
</svg>
